src/images_karasa_jaga_svg/cmd/lc_crookrotate.svg

<svg height="24" width="24" xmlns="http://www.w3.org/2000/svg" xmlns:xlink="http://www.w3.org/1999/xlink"><linearGradient id="a"><stop offset="0" stop-color="#0968ef"/><stop offset="1" stop-color="#aecffc"/></linearGradient><linearGradient id="b"><stop offset="0" stop-color="#fff"/><stop offset="1" stop-color="#fff" stop-opacity="0"/></linearGradient><linearGradient id="c" gradientTransform="matrix(2.2115662 -.04123813 -.04123817 2.2591837 -31.837642 -67.624458)" gradientUnits="userSpaceOnUse" x1="68.302673" x2="68.302673" xlink:href="#b" y1="30.528692" y2="85.07811"/><linearGradient id="d" gradientTransform="matrix(.88731106 0 0 1.2261852 -40.905799 -11.618961)" gradientUnits="userSpaceOnUse" x1="102.31124" x2="74.330322" xlink:href="#b" y1="-5.830213" y2="32"/><linearGradient id="e" gradientTransform="matrix(.59245361 0 0 .76480615 -73.477856 -10.747966)" gradientUnits="userSpaceOnUse" x1="29.500801" x2="103.76822" y1="29.743441" y2="97.734528"><stop offset="0" stop-color="#fff"/><stop offset=".42597079" stop-color="#fff"/><stop offset=".5892781" stop-color="#f1f1f1"/><stop offset=".80219781" stop-color="#eaeaea"/><stop offset="1" stop-color="#dfdfdf"/></linearGradient><linearGradient id="f" gradientTransform="matrix(.07291481 0 0 .10813251 -78.254027 -54.755844)" gradientUnits="userSpaceOnUse" x1="399.77466" x2="399.77466" y1="1164.6696" y2="549.06134"><stop offset="0" stop-color="#b4b4b6"/><stop offset=".5" stop-color="#9c9ca1"/><stop offset="1" stop-color="#cdcdd1"/></linearGradient><linearGradient id="g" gradientUnits="userSpaceOnUse" x1="58.181641" x2="104.7258" y1="90.194336" y2="64.0009"><stop offset="0" stop-color="#c7cdd7"/><stop offset="1" stop-color="#fff"/></linearGradient><linearGradient id="h" gradientUnits="userSpaceOnUse" x1="52.363281" x2="151.2706" xlink:href="#a" y1="90.182655" y2="34.9104"/><linearGradient id="i" gradientTransform="matrix(.62351671 .59545422 .59545422 -.62351671 -42.057927 59.769481)" gradientUnits="userSpaceOnUse" x1="113.15723" x2="39.268185" xlink:href="#a" y1="25.786163" y2="25.786163"/><g transform="matrix(.171875 0 0 .171875 1.000155 .99999)"><rect fill="url(#f)" height="64" rx="2.144051" ry="2.301303" transform="rotate(-90)" width="64" x="-64"/><g fill-rule="evenodd"><rect fill="url(#e)" height="52.3629" rx="1.066416" ry="1.24281" transform="rotate(-90)" width="52.3629" x="-58.1828" y="5.8181"/><path d="m40.716944 5.8199c-9.479645 11.560575-18.799718 26.244739-24.33572 41.418025h24.151496c1.352678-14.52659 6.009145-29.829538 11.83018-41.418025z" fill="url(#d)"/><path d="m49.436804 113.76553-26.873487-1.82057-.111541-4.84521 12.023076-2.8541c-23.352054-22.30105-17.635176-41.413425-5.763822-54.450926l4.995192 5.070294c-8.709479 10.761859-15.063098 24.724071 5.532263 44.392504l2.177947-12.016193 4.965056-.237033z" fill="url(#i)"/></g><path d="m83.521484 52.365234c-2.241916 1.526748-2.444397 3.253453-2.58789 5.50586a18.023867 18.023867 0 0 1 1.089844 6.128906 18.023867 18.023867 0 0 1 -18.023438 18.023438 18.023867 18.023867 0 0 1 -8.472656-2.123047c-1.549153.140929-2.870115.700581-3.097656 2.201171l-.06641 39.726558c.000284 2.9647 2.229278 5.45528 5.175781 5.78321 2.12802.23674 4.267173.36637 6.408204.38867.02018.00011.04037.00011.06055 0 16.75273-.00004 33.402076-6.89622 45.248047-18.74219 11.84597-11.84596 18.74215-28.495315 18.74219-45.248044v-.002c-.00089-2.139949-.10901-4.281053-.32422-6.410156-.30126-2.971175-2.80265-5.232047-5.78906-5.232422z" fill="url(#h)"/><path d="m86.460938 58.189453a23.217184 23.217184 0 0 1 .755859 5.810547 23.217184 23.217184 0 0 1 -23.216797 23.216797 23.217184 23.217184 0 0 1 -5.648438-.726563c-.05725.000628-.113538.000935-.169921.002v35.417976c1.836667.17035 4.110623.26896 5.792968.29492 32.145735-.0001 57.380751-26.053489 57.380861-58.199225.00011-1.942443-.097-3.883674-.29102-5.816406z" fill="url(#g)"/><path d="m86.472656 58.189453c.02891.138049.04928.277609.07617.416016a23.217184 23.217184 0 0 1 .667971 5.394531 23.217184 23.217184 0 0 1 -12.787109 20.736328c-.563177.50051-1.128667 1.009685-1.679688 1.47461 4.123866.151257 12.310921.198344 16.558594.11914 7.663943-.142904 20.739126-.691586 28.324216-1.554687 2.40068-6.452491 3.72263-13.449534 3.72266-20.769532.00011-1.942443-.097-3.883674-.29102-5.816406z" fill="url(#c)" opacity=".574257"/></g></svg>

<?xml version="1.0" encoding="UTF-8" standalone="no"?>
<!-- Created with Inkscape (http://www.inkscape.org/) -->

<svg
   xmlns:dc="http://purl.org/dc/elements/1.1/"
   xmlns:cc="http://creativecommons.org/ns#"
   xmlns:rdf="http://www.w3.org/1999/02/22-rdf-syntax-ns#"
   xmlns:svg="http://www.w3.org/2000/svg"
   xmlns="http://www.w3.org/2000/svg"
   xmlns:xlink="http://www.w3.org/1999/xlink"
   xmlns:sodipodi="http://sodipodi.sourceforge.net/DTD/sodipodi-0.dtd"
   xmlns:inkscape="http://www.inkscape.org/namespaces/inkscape"
   width="128"
   height="128"
   id="svg2"
   sodipodi:version="0.32"
   inkscape:version="0.92.3 (unknown)"
   version="1.0"
   sodipodi:docname="lc_crookrotate.svg"
   inkscape:output_extension="org.inkscape.output.svgz.inkscape"
   inkscape:export-filename="/home/rizmut/Dokumen/Rizmut/Github/libreoffice-style-karasa-jaga/build/images_karasa_jaga/cmd/lc_crookrotate.png"
   inkscape:export-xdpi="16.5"
   inkscape:export-ydpi="16.5">
  <defs
     id="defs4">
    <inkscape:perspective
       sodipodi:type="inkscape:persp3d"
       inkscape:vp_x="0 : 64 : 1"
       inkscape:vp_y="0 : 1000 : 0"
       inkscape:vp_z="128 : 64 : 1"
       inkscape:persp3d-origin="64 : 42.666667 : 1"
       id="perspective46" />
    <linearGradient
       id="linearGradient2399">
      <stop
         id="stop2401"
         offset="0"
         style="stop-color:#0968ef;stop-opacity:1;" />
      <stop
         id="stop2403"
         offset="1"
         style="stop-color:#aecffc;stop-opacity:1;" />
    </linearGradient>
    <linearGradient
       id="linearGradient2431">
      <stop
         style="stop-color:#ffffff;stop-opacity:1;"
         offset="0"
         id="stop2433" />
      <stop
         id="stop2435"
         offset="0.42597079"
         style="stop-color:#ffffff;stop-opacity:1;" />
      <stop
         id="stop2437"
         offset="0.5892781"
         style="stop-color:#f1f1f1;stop-opacity:1;" />
      <stop
         style="stop-color:#eaeaea;stop-opacity:1;"
         offset="0.80219781"
         id="stop2439" />
      <stop
         style="stop-color:#dfdfdf;stop-opacity:1;"
         offset="1"
         id="stop2441" />
    </linearGradient>
    <linearGradient
       id="linearGradient7422">
      <stop
         style="stop-color:#b4b4b6;stop-opacity:1;"
         offset="0"
         id="stop7424" />
      <stop
         id="stop5348"
         offset="0.5"
         style="stop-color:#9c9ca1;stop-opacity:1;" />
      <stop
         id="stop7426"
         offset="1"
         style="stop-color:#cdcdd1;stop-opacity:1;" />
    </linearGradient>
    <linearGradient
       id="linearGradient3310"
       inkscape:collect="always">
      <stop
         id="stop3312"
         offset="0"
         style="stop-color:#ffffff;stop-opacity:1;" />
      <stop
         id="stop3314"
         offset="1"
         style="stop-color:#ffffff;stop-opacity:0;" />
    </linearGradient>
    <linearGradient
       id="linearGradient3314"
       inkscape:collect="always">
      <stop
         id="stop3316"
         offset="0"
         style="stop-color:#ffffff;stop-opacity:1;" />
      <stop
         id="stop3318"
         offset="1"
         style="stop-color:#ffffff;stop-opacity:0;" />
    </linearGradient>
    <linearGradient
       id="linearGradient3323">
      <stop
         style="stop-color:#c7cdd7;stop-opacity:1;"
         offset="0"
         id="stop3325" />
      <stop
         style="stop-color:#ffffff;stop-opacity:1;"
         offset="1"
         id="stop3327" />
    </linearGradient>
    <linearGradient
       inkscape:collect="always"
       xlink:href="#linearGradient2399"
       id="linearGradient2201"
       gradientUnits="userSpaceOnUse"
       gradientTransform="matrix(0.14127989,-0.66444142,0.66444142,0.14127989,-18.819718,130.2539)"
       x1="113.15723"
       y1="25.786163"
       x2="39.268185"
       y2="25.786163" />
    <linearGradient
       inkscape:collect="always"
       xlink:href="#linearGradient3314"
       id="linearGradient2204"
       gradientUnits="userSpaceOnUse"
       gradientTransform="matrix(1.5275638,-2.6458181,2.2162152,1.280019,-187.60223,-4.8954894)"
       x1="20"
       y1="78.165009"
       x2="20"
       y2="109.84906" />
    <linearGradient
       inkscape:collect="always"
       xlink:href="#linearGradient3323"
       id="linearGradient2207"
       gradientUnits="userSpaceOnUse"
       gradientTransform="matrix(0.7637819,0,0,0.8888892,-77.368144,35.414217)"
       x1="80.34671"
       y1="17.268518"
       x2="73.462685"
       y2="107.95493" />
    <linearGradient
       inkscape:collect="always"
       xlink:href="#linearGradient3310"
       id="linearGradient2211"
       gradientUnits="userSpaceOnUse"
       gradientTransform="matrix(0.94898505,0,0,1.3114132,-43.287562,7.0173895)"
       x1="102.31124"
       y1="-5.8302126"
       x2="74.330322"
       y2="32" />
    <linearGradient
       inkscape:collect="always"
       xlink:href="#linearGradient2431"
       id="linearGradient2214"
       gradientUnits="userSpaceOnUse"
       gradientTransform="matrix(0.70833339,0,0,0.888889,-103.33333,-12.901465)"
       x1="42.728634"
       y1="99.999985"
       x2="124.09152"
       y2="27.999992" />
    <linearGradient
       inkscape:collect="always"
       xlink:href="#linearGradient7422"
       id="linearGradient2217"
       gradientUnits="userSpaceOnUse"
       gradientTransform="matrix(0.08948859,0,0,0.1301193,-110.22302,-67.516115)"
       x1="399.77466"
       y1="1164.6696"
       x2="399.77466"
       y2="549.06134" />
    <linearGradient
       inkscape:collect="always"
       xlink:href="#linearGradient2399"
       id="linearGradient2221"
       gradientUnits="userSpaceOnUse"
       gradientTransform="matrix(-0.13313305,0.62612671,-0.62612671,-0.13313305,145.6909,8.214993)"
       x1="113.15723"
       y1="25.786163"
       x2="39.268185"
       y2="25.786163" />
    <linearGradient
       inkscape:collect="always"
       xlink:href="#linearGradient2399"
       id="linearGradient3612"
       x1="-69.147636"
       y1="92.303108"
       x2="8.4692287"
       y2="55.123131"
       gradientUnits="userSpaceOnUse"
       gradientTransform="matrix(0.8820543,0,0,0.94818453,-5.4400014,6.7463582)" />
    <linearGradient
       inkscape:collect="always"
       xlink:href="#linearGradient3323"
       id="linearGradient3614"
       gradientUnits="userSpaceOnUse"
       gradientTransform="matrix(0.67369711,0,0,0.84283104,-73.682904,40.325571)"
       x1="28.42202"
       y1="58.674355"
       x2="127.80429"
       y2="35.79192" />
    <linearGradient
       inkscape:collect="always"
       xlink:href="#linearGradient3323"
       id="linearGradient3616"
       gradientUnits="userSpaceOnUse"
       gradientTransform="matrix(0.67013598,0,0,0.83333345,-73.625866,40.933415)"
       x1="80.34671"
       y1="17.268518"
       x2="73.462685"
       y2="107.95493" />
    <linearGradient
       inkscape:collect="always"
       xlink:href="#linearGradient3310"
       id="linearGradient3629"
       x1="68.302673"
       y1="30.528692"
       x2="68.302673"
       y2="85.07811"
       gradientUnits="userSpaceOnUse" />
    <linearGradient
       inkscape:collect="always"
       xlink:href="#linearGradient7422"
       id="linearGradient3722"
       gradientUnits="userSpaceOnUse"
       gradientTransform="matrix(0.08948859,0,0,0.1301193,-110.22302,-67.516115)"
       x1="399.77466"
       y1="1164.6696"
       x2="399.77466"
       y2="549.06134" />
    <linearGradient
       inkscape:collect="always"
       xlink:href="#linearGradient2431"
       id="linearGradient3724"
       gradientUnits="userSpaceOnUse"
       gradientTransform="matrix(0.70833339,0,0,0.888889,-103.33333,-12.901465)"
       x1="42.728634"
       y1="99.999985"
       x2="124.09152"
       y2="27.999992" />
    <linearGradient
       inkscape:collect="always"
       xlink:href="#linearGradient3310"
       id="linearGradient3726"
       gradientUnits="userSpaceOnUse"
       gradientTransform="matrix(0.94898505,0,0,1.3114132,-43.287562,7.0173895)"
       x1="102.31124"
       y1="-5.8302126"
       x2="74.330322"
       y2="32" />
    <linearGradient
       inkscape:collect="always"
       xlink:href="#linearGradient3323"
       id="linearGradient3728"
       gradientUnits="userSpaceOnUse"
       gradientTransform="matrix(0.67369711,0,0,0.84283104,-73.682904,40.325571)"
       x1="28.42202"
       y1="58.674355"
       x2="127.80429"
       y2="35.79192" />
    <linearGradient
       inkscape:collect="always"
       xlink:href="#linearGradient2399"
       id="linearGradient3730"
       gradientUnits="userSpaceOnUse"
       gradientTransform="matrix(0.8820543,0,0,0.94818453,-5.4400014,6.7463582)"
       x1="-69.147636"
       y1="92.303108"
       x2="8.4692287"
       y2="55.123131" />
    <linearGradient
       inkscape:collect="always"
       xlink:href="#linearGradient2399"
       id="linearGradient3732"
       gradientUnits="userSpaceOnUse"
       gradientTransform="matrix(0.14127989,-0.66444142,0.66444142,0.14127989,-18.819718,130.2539)"
       x1="113.15723"
       y1="25.786163"
       x2="39.268185"
       y2="25.786163" />
    <linearGradient
       inkscape:collect="always"
       xlink:href="#linearGradient2399"
       id="linearGradient3734"
       gradientUnits="userSpaceOnUse"
       gradientTransform="matrix(-0.13313305,0.62612671,-0.62612671,-0.13313305,145.6909,8.214993)"
       x1="113.15723"
       y1="25.786163"
       x2="39.268185"
       y2="25.786163" />
    <linearGradient
       inkscape:collect="always"
       xlink:href="#linearGradient3310"
       id="linearGradient3736"
       gradientUnits="userSpaceOnUse"
       x1="68.302673"
       y1="30.528692"
       x2="68.302673"
       y2="85.07811" />
    <linearGradient
       inkscape:collect="always"
       xlink:href="#linearGradient3310"
       id="linearGradient3739"
       gradientUnits="userSpaceOnUse"
       x1="68.302673"
       y1="30.528692"
       x2="68.302673"
       y2="85.07811"
       gradientTransform="matrix(2.2115662,-0.04123813,-0.04123817,2.2591837,-31.837642,-67.624458)" />
    <linearGradient
       inkscape:collect="always"
       xlink:href="#linearGradient2399"
       id="linearGradient3742"
       gradientUnits="userSpaceOnUse"
       gradientTransform="matrix(-0.0971347,0.45682595,-0.45682595,-0.0971347,136.72685,21.046678)"
       x1="113.15723"
       y1="25.786163"
       x2="39.268185"
       y2="25.786163" />
    <linearGradient
       inkscape:collect="always"
       xlink:href="#linearGradient3310"
       id="linearGradient3756"
       gradientUnits="userSpaceOnUse"
       gradientTransform="matrix(0.88731106,0,0,1.2261852,-40.905799,-11.618961)"
       x1="102.31124"
       y1="-5.8302126"
       x2="74.330322"
       y2="32" />
    <linearGradient
       inkscape:collect="always"
       xlink:href="#linearGradient2431"
       id="linearGradient3759"
       gradientUnits="userSpaceOnUse"
       gradientTransform="matrix(0.59245361,0,0,0.76480615,-73.477856,-10.747966)"
       x1="29.500801"
       y1="29.743441"
       x2="103.76822"
       y2="97.734528" />
    <linearGradient
       inkscape:collect="always"
       xlink:href="#linearGradient7422"
       id="linearGradient3762"
       gradientUnits="userSpaceOnUse"
       gradientTransform="matrix(0.07291481,0,0,0.10813251,-78.254027,-54.755844)"
       x1="399.77466"
       y1="1164.6696"
       x2="399.77466"
       y2="549.06134" />
    <linearGradient
       inkscape:collect="always"
       xlink:href="#linearGradient2399"
       id="linearGradient936"
       x1="7.3417306"
       y1="83.848755"
       x2="0"
       y2="40"
       gradientUnits="userSpaceOnUse"
       gradientTransform="rotate(-11.533469,28.300052,83.848753)" />
    <linearGradient
       inkscape:collect="always"
       xlink:href="#linearGradient3323"
       id="linearGradient986"
       x1="58.181641"
       y1="90.194336"
       x2="104.7258"
       y2="64.0009"
       gradientUnits="userSpaceOnUse" />
    <linearGradient
       inkscape:collect="always"
       xlink:href="#linearGradient2399"
       id="linearGradient994"
       x1="52.363281"
       y1="90.182655"
       x2="151.2706"
       y2="34.9104"
       gradientUnits="userSpaceOnUse" />
    <linearGradient
       inkscape:collect="always"
       xlink:href="#linearGradient2399"
       id="linearGradient3661"
       gradientUnits="userSpaceOnUse"
       gradientTransform="matrix(0.62351671,0.59545422,0.59545422,-0.62351671,-42.057927,59.769481)"
       x1="113.15723"
       y1="25.786163"
       x2="39.268185"
       y2="25.786163" />
  </defs>
  <sodipodi:namedview
     id="base"
     pagecolor="#ffffff"
     bordercolor="#666666"
     borderopacity="1.0"
     gridtolerance="10000"
     guidetolerance="10"
     objecttolerance="10"
     inkscape:pageopacity="0.0"
     inkscape:pageshadow="2"
     inkscape:zoom="2.3146699"
     inkscape:cx="24.175172"
     inkscape:cy="53.739334"
     inkscape:document-units="px"
     inkscape:current-layer="layer1"
     width="128px"
     height="128px"
     showgrid="true"
     showborder="true"
     inkscape:window-width="1366"
     inkscape:window-height="657"
     inkscape:window-x="0"
     inkscape:window-y="30"
     inkscape:snap-nodes="true"
     inkscape:snap-bbox="true"
     inkscape:snap-page="false"
     inkscape:window-maximized="1"
     inkscape:snap-global="true"
     inkscape:snap-smooth-nodes="false"
     inkscape:snap-grids="true"
     inkscape:object-nodes="false">
    <inkscape:grid
       id="GridFromPre046Settings"
       type="xygrid"
       originx="0"
       originy="0"
       spacingx="5.8181"
       spacingy="5.8181"
       color="#0000ff"
       empcolor="#0000ff"
       opacity="0.2"
       empopacity="0.4"
       empspacing="1"
       visible="true"
       enabled="true" />
  </sodipodi:namedview>
  <metadata
     id="metadata7">
    <rdf:RDF>
      <cc:Work
         rdf:about="">
        <dc:format>image/svg+xml</dc:format>
        <dc:type
           rdf:resource="http://purl.org/dc/dcmitype/StillImage" />
        <dc:title />
      </cc:Work>
    </rdf:RDF>
  </metadata>
  <g
     inkscape:label="Layer 1"
     inkscape:groupmode="layer"
     id="layer1">
    <g
       id="g1927">
      <g
         id="g1561">
        <rect
           transform="rotate(-90)"
           rx="2.1440511"
           ry="2.3013027"
           inkscape:r_cy="true"
           inkscape:r_cx="true"
           y="3.9188699e-15"
           x="-64"
           height="64"
           width="64"
           id="rect3281"
           style="opacity:1;fill:url(#linearGradient3762);fill-opacity:1;fill-rule:nonzero;stroke:none"
           inkscape:export-filename="/home/pinheiro/Desktop/mock2.png"
           inkscape:export-xdpi="90"
           inkscape:export-ydpi="90" />
        <rect
           transform="rotate(-90)"
           style="fill:url(#linearGradient3759);fill-opacity:1;fill-rule:evenodd;stroke:none"
           id="rect3283"
           width="52.3629"
           height="52.3629"
           x="-58.1828"
           y="5.8181"
           rx="1.0664161"
           ry="1.2428099" />
        <path
           style="fill:url(#linearGradient3756);fill-opacity:1;fill-rule:evenodd;stroke:none;stroke-width:1.11351407"
           d="M 40.716944,5.8199 C 31.237299,17.380475 21.917226,32.064639 16.381224,47.237925 H 40.53272 C 41.885398,32.711335 46.541865,17.408387 52.3629,5.8199 Z"
           id="path3285"
           inkscape:connector-curvature="0"
           sodipodi:nodetypes="ccccc" />
      </g>
      <path
         style="fill:url(#linearGradient3661);fill-opacity:1;fill-rule:evenodd;stroke:none"
         d="m 49.436804,113.76553 -26.873487,-1.82057 -0.111541,-4.84521 12.023076,-2.8541 C 11.122798,81.9446 16.839676,62.832225 28.71103,49.794724 l 4.995192,5.070294 c -8.709479,10.761859 -15.063098,24.724071 5.532263,44.392504 l 2.177947,-12.016193 4.965056,-0.237033 z"
         id="path2537"
         sodipodi:nodetypes="cccccccccc"
         inkscape:connector-curvature="0" />
      <g
         id="g1090">
        <path
           style="opacity:1;fill:url(#linearGradient994);fill-opacity:1;stroke:none;stroke-width:6.46344614;stroke-linecap:round;stroke-linejoin:round;stroke-miterlimit:4;stroke-dasharray:none;stroke-dashoffset:0;stroke-opacity:1"
           d="M 83.521484 52.365234 C 81.279568 53.891982 81.077087 55.618687 80.933594 57.871094 A 18.023867 18.023867 0 0 1 82.023438 64 A 18.023867 18.023867 0 0 1 64 82.023438 A 18.023867 18.023867 0 0 1 55.527344 79.900391 C 53.978191 80.04132 52.657229 80.600972 52.429688 82.101562 L 52.363281 121.82812 C 52.363565 124.79282 54.592559 127.2834 57.539062 127.61133 C 59.667082 127.84807 61.806235 127.9777 63.947266 128 C 63.967446 128.00011 63.987633 128.00011 64.007812 128 C 80.760542 127.99996 97.409888 121.10378 109.25586 109.25781 C 121.10183 97.41185 127.99801 80.762495 127.99805 64.009766 L 127.99805 64.007812 C 127.99716 61.867863 127.88904 59.726759 127.67383 57.597656 C 127.37257 54.626481 124.87118 52.365609 121.88477 52.365234 L 83.521484 52.365234 z "
           id="path1642" />
        <path
           style="opacity:1;fill:url(#linearGradient986);fill-opacity:1;stroke:none;stroke-width:7.27553272;stroke-linecap:round;stroke-linejoin:round;stroke-miterlimit:4;stroke-dasharray:none;stroke-dashoffset:0;stroke-opacity:1"
           d="M 86.460938 58.189453 A 23.217184 23.217184 0 0 1 87.216797 64 A 23.217184 23.217184 0 0 1 64 87.216797 A 23.217184 23.217184 0 0 1 58.351562 86.490234 C 58.294307 86.490862 58.238024 86.491169 58.181641 86.492188 L 58.181641 121.91016 C 60.018308 122.08051 62.292264 122.17912 63.974609 122.20508 C 96.120344 122.20498 121.35536 96.151595 121.35547 64.005859 C 121.35558 62.063416 121.25847 60.122185 121.06445 58.189453 L 86.460938 58.189453 z "
           id="path963" />
        <path
           style="opacity:0.57425741;fill:url(#linearGradient3739);fill-opacity:1;stroke:none;stroke-width:2.79592323"
           d="M 86.472656 58.189453 C 86.501569 58.327502 86.521933 58.467062 86.548828 58.605469 A 23.217184 23.217184 0 0 1 87.216797 64 A 23.217184 23.217184 0 0 1 74.429688 84.736328 C 73.866511 85.236838 73.301021 85.746013 72.75 86.210938 C 76.873866 86.362195 85.060921 86.409282 89.308594 86.330078 C 96.972537 86.187174 110.04772 85.638492 117.63281 84.775391 C 120.03349 78.3229 121.35544 71.325857 121.35547 64.005859 C 121.35558 62.063416 121.25847 60.122185 121.06445 58.189453 L 86.472656 58.189453 z "
           id="path3618" />
      </g>
    </g>
  </g>
</svg>
